X: 40997
T: Trip To Evesham
R: reel
M: 4/4
K: Amajor
|:a2ec BAAc|ecBA F3A|Bc A3A ce|fecA B3 e|
a2ec BAAc|ecBA F3A|Bc E3A Bc|1 D3A Bc BA:|2 D3A Bc BA||
|:B2 BA BABc|ec BA FzE2|zABA ecBA|AceA decA|
B2 BA BABc|ec BA FzE2|AceA deAc|1 eAde de cA:|2 eAde de (3efg||

